icons/switch-active.svg

<svg xmlns="http://www.w3.org/2000/svg" viewBox="0 0 24 24" fill="currentColor">
  <path d="M8 7.75c-2.38579 0-4.25 1.86421-4.25 4.25 0 2.2956 1.87393 4.25 4.25 4.25h8c2.3858 0 4.25-1.8642 4.25-4.25 0-2.38579-1.8642-4.25-4.25-4.25H8ZM2.25 12c0-3.21421 2.53579-5.75 5.75-5.75h8c3.2142 0 5.75 2.53579 5.75 5.75 0 3.2142-2.5358 5.75-5.75 5.75H8c-3.22393 0-5.75-2.6456-5.75-5.75ZM16 9.25c-1.5188 0-2.75 1.2312-2.75 2.75s1.2312 2.75 2.75 2.75 2.75-1.2312 2.75-2.75S17.5188 9.25 16 9.25Z"/>
</svg>

<svg width="24" height="24" viewBox="0 0 24 24" fill="none" xmlns="http://www.w3.org/2000/svg">
<path fill-rule="evenodd" clip-rule="evenodd" d="M8 7.75C5.61421 7.75 3.75 9.61421 3.75 12C3.75 14.2956 5.62393 16.25 8 16.25H16C18.3858 16.25 20.25 14.3858 20.25 12C20.25 9.61421 18.3858 7.75 16 7.75H8ZM2.25 12C2.25 8.78579 4.78579 6.25 8 6.25H16C19.2142 6.25 21.75 8.78579 21.75 12C21.75 15.2142 19.2142 17.75 16 17.75H8C4.77607 17.75 2.25 15.1044 2.25 12ZM16 9.25C14.4812 9.25 13.25 10.4812 13.25 12C13.25 13.5188 14.4812 14.75 16 14.75C17.5188 14.75 18.75 13.5188 18.75 12C18.75 10.4812 17.5188 9.25 16 9.25Z" fill="black"/>
</svg>
